X: 26505
T: Michael O'Conor
R: jig
M: 6/8
K: Cmajor
g2f e2c|dfd BGB|c3 cBA|BAd G2g|
e2c ege|fad BGB|c2A dBG|c3 c3||
efg gec|gec c2g|fga afd|afd d2f|
efg gag|c2A geg|a2d BGB|c3 c3||

